X:3096
L:1/4
Q:1/4=120
M:3/4
K:Gmin
"^Very Slow" d d e/f/ | g2 g | (g f) e | d2 d | (e f) e | d2 c | (c B) c | f2 d | (g f) d | c2 B | 
 (c B) G | G2 G2 ||

